!!!!SEGMENT: Lpi1001e-Missa_Philomena-Agnus.krn
!!!id: Lpi1001e
!!!AGN: Mass; Agnus
!!!voices: 2-6
!!!COM: Johannes Lupi
!!!OTL: Agnus
**kern	**kern	**kern	**kern	**kern	**kern
*part6	*part5	*part4	*part3	*part2	*part1
*staff6	*staff5	*staff4	*staff3	*staff2	*staff1
*I"Bassus II	*I"Bassus I	*I"Tenor	*I"Altus	*I"Superius II	*I"Superius I
*I'B. II	*I'B. I	*I'T	*I'A	*I'S. II	*I'S. I
*clefF4	*clefF4	*clefF4	*clefGv2	*clefG2	*clefG2
*k[b-]	*k[b-]	*k[b-]	*k[b-]	*k[b-]	*k[b-]
*F:	*F:	*F:	*F:	*F:	*F:
*	*M2/1	*M2/1	*M2/1	*	*M2/1
*	*met(C|)	*met(C|)	*met(C|)	*	*met(C|)
!!section: Agnus Dei I
!!!OMD: Agnus Dei I
=1	=1	=1	=1	=1	=1
0r	0r	0r	1.c	0r	0r
.	.	.	2c	.	.
=2	=2	=2	=2	=2	=2
0r	0r	0r	2B-y	0r	1.g
.	.	.	2G	.	.
.	.	.	2.B-y	.	.
.	.	.	.	.	2g
.	.	.	4c	.	.
=3	=3	=3	=3	=3	=3
0r	0r	0r	4d	0r	2f
.	.	.	4e	.	.
.	.	.	2.f	.	2d
.	.	.	.	.	1f
.	.	.	4e	.	.
.	.	.	[2d	.	.
=4	=4	=4	=4	=4	=4
0r	2r	1r	2d]	0r	2.e
.	1C	.	4c	.	.
.	.	.	4B-y	.	4d
.	.	2r	1c	.	1e
.	2C	[2G	.	.	.
=5	=5	=5	=5	=5	=5
0r	2BB-y	2G]	1d	0r	[0d
.	2GG	2G	.	.	.
.	2.BB-y	2F	1r	.	.
.	.	2D	.	.	.
.	4C	.	.	.	.
=6	=6	=6	=6	=6	=6
0r	1D	2.F	0r	0r	1d]
.	.	4G	.	.	.
.	2.D	4A	.	.	1r
.	.	4F	.	.	.
.	.	2B-y	.	.	.
.	4E	.	.	.	.
=7	=7	=7	=7	=7	=7
0r	4F	2A	1c	0r	0r
.	4D	.	.	.	.
.	1G	2G	.	.	.
.	.	1A	2c	.	.
.	2F#i	.	2c	.	.
=8	=8	=8	=8	=8	=8
0r	1G	2G	2B-y	0r	1r
.	.	2.B-y	2G	.	.
.	1GG	.	1B-y	.	2r
.	.	4A	.	.	.
.	.	4G	.	.	2g
.	.	4F	.	.	.
=9	=9	=9	=9	=9	=9
0r	0r	1E	1c	0r	2g
.	.	.	.	.	2g
.	.	1D	2d	.	2f
.	.	.	[2f	.	2d
=10	=10	=10	=10	=10	=10
0r	0r	2r	4f]	0r	1f
.	.	.	4e	.	.
.	.	2D	1d	.	.
.	.	1E	.	.	1g
.	.	.	2c#i	.	.
=11	=11	=11	=11	=11	=11
0r	0r	2D	[0d	0r	2f
.	.	1G	.	.	1b-y
.	.	2F	.	.	2a
=12	=12	=12	=12	=12	=12
0r	0r	2.G	1d]	0r	2.b-y
.	.	4A	.	.	4a
.	.	4B-y	2r	.	2f
.	.	4A	.	.	.
.	.	4G	2B-y	.	[2g
.	.	4F	.	.	.
=13	=13	=13	=13	=13	=13
0r	0r	4E	2G	0r	4g]
.	.	4D	.	.	4f
.	.	1G	1B-y	.	2d
.	.	.	.	.	2e
.	.	4F	4A	.	[2f
.	.	4E	4G	.	.
=14	=14	=14	=14	=14	=14
0r	0r	2D	2A	0r	4f]
.	.	.	.	.	4e
.	.	2.G	2B-y	.	4d
.	.	.	.	.	4c
.	.	.	1G	.	2B-y
.	.	4F	.	.	.
.	.	[2B-y	.	.	[2d
=15	=15	=15	=15	=15	=15
0r	1r	2B-]	2r	0r	2d]
.	.	4A	2B-y	.	4c
.	.	4G	.	.	4B-y
.	2r	2F	2c	.	2A
.	2D	4G	[2A	.	[2d
.	.	4F	.	.	.
=16	=16	=16	=16	=16	=16
0r	1E-X	1G	4A]	0r	2d]
.	.	.	4G	.	.
.	.	.	1G	.	2c
.	1D	2r	.	.	1d
.	.	2A	2F#i	.	.
=17	=17	=17	=17	=17	=17
0r	2r	2B-y	2.G	0r	1d
.	2G	2B-y	.	.	.
.	.	.	4A	.	.
.	2G	2G	4B-y	.	2d
.	.	.	4c	.	.
.	2G	[2B-y	4d	.	2d
.	.	.	4B-y	.	.
=18	=18	=18	=18	=18	=18
0r	2F	4B-]	2c	0r	1f
.	.	4A	.	.	.
.	2D	1A	1d	.	.
.	2E	.	.	.	1g
.	2E	2G	2c#i	.	.
=19	=19	=19	=19	=19	=19
0r	0D	1A	[0d	0r	[0f
.	.	2r	.	.	.
.	.	2F	.	.	.
=20	=20	=20	=20	=20	=20
0r	2r	1B-y	1d]	0r	1f]
.	1BB-y	.	.	.	.
.	.	1B-y	1r	.	1r
.	2BB-y	.	.	.	.
=21	=21	=21	=21	=21	=21
0r	2C	2.A	1r	0r	2r
.	2.D	.	.	.	2f
.	.	4G	.	.	.
.	.	2F	2r	.	2f
.	4C	.	.	.	.
.	4BB-y	[2B-y	2d	.	2f
.	4AA	.	.	.	.
=22	=22	=22	=22	=22	=22
0r	2GG	4B-]	2d	0r	1g
.	.	4A	.	.	.
.	2BB-y	1G	2d	.	.
.	1AA	.	1c	.	1a
.	.	2F#i	.	.	.
=23	=23	=23	=23	=23	=23
0r	1GG	2.G	2B-y	0r	2.b-y
.	.	.	2.d	.	.
.	.	4E	.	.	4g
.	1r	2F	.	.	4a
.	.	.	4c	.	4g
.	.	[2G	4B-y	.	[2b-y
.	.	.	4A	.	.
=24	=24	=24	=24	=24	=24
0r	2r	4G]	1G	0r	2b-]
.	.	4A	.	.	.
.	2G	4B-y	.	.	4a
.	.	4G	.	.	4g
.	1D	1A	2r	.	1f
.	.	.	2d	.	.
=25	=25	=25	=25	=25	=25
0r	1G	2r	2d	0r	1g
.	.	2B-y	2B-y	.	.
.	[1F	4A	4c	.	2a
.	.	4G	4B-y	.	.
.	.	4A	4A	.	[2cc
.	.	4B-y	4G	.	.
=26	=26	=26	=26	=26	=26
0r	2F]	2c	2F	0r	4cc]
.	.	.	.	.	4b-y
.	2F	1d	1f	.	4a
.	.	.	.	.	4g
.	2BB-y	.	.	.	2b-y
.	2C	2c	2e	.	[2a
=27	=27	=27	=27	=27	=27
0r	2D	2B-y	2d	0r	4a]
.	.	.	.	.	4g
.	2E-i	4A	2c	.	1g
.	.	4G	.	.	.
.	1D	1A	1d	.	.
.	.	.	.	.	2f#i
=28	=28	=28	=28	=28	=28
00r	00GG	00G	00d	00r	00g
=29||	=29||	=29||	=29||	=29||	=29||
*	*M2/1	*M2/1	*	*	*
*	*met(C|)	*met(C|)	*	*	*
!!section: Agnus Dei II
!!!OMD: Agnus Dei II
0r	1C	1r	0r	0r	0r
.	2C	1G	.	.	.
.	2C	.	.	.	.
=30	=30	=30	=30	=30	=30
0r	1GG	2G	0r	0r	0r
.	.	2G	.	.	.
.	2r	1D	.	.	.
.	2GG	.	.	.	.
=31	=31	=31	=31	=31	=31
0r	2.BB-y	2r	0r	0r	0r
.	.	2D	.	.	.
.	4C	.	.	.	.
.	1D	2.F	.	.	.
.	.	4G	.	.	.
=32	=32	=32	=32	=32	=32
0r	2r	1A	0r	0r	0r
.	1D	.	.	.	.
.	.	2r	.	.	.
.	4C	[2A	.	.	.
.	4BB-y	.	.	.	.
=33	=33	=33	=33	=33	=33
0r	2C	2A]	0r	0r	0r
.	2D	4G	.	.	.
.	.	4F	.	.	.
.	2BB-y	2G	.	.	.
.	[2C	[2A	.	.	.
=34	=34	=34	=34	=34	=34
0r	4C]	4A]	0r	0r	0r
.	4BB-y	4G	.	.	.
.	4AA	1G	.	.	.
.	4GG	.	.	.	.
.	1AA	.	.	.	.
.	.	2F#i	.	.	.
=35	=35	=35	=35	=35	=35
0r	1GG	0G	0r	0r	0r
.	2r	.	.	.	.
.	2C	.	.	.	.
=36	=36	=36	=36	=36	=36
0r	2C	2r	0r	0r	0r
.	2BB-y	2G	.	.	.
.	2C	2G	.	.	.
.	2D	2F	.	.	.
=37	=37	=37	=37	=37	=37
0r	2BB-y	2G	0r	0r	0r
.	2C	2A	.	.	.
.	2.D	2.F	.	.	.
.	4E	4G	.	.	.
=38	=38	=38	=38	=38	=38
0r	4F	4A	0r	0r	0r
.	4D	4F	.	.	.
.	2.E-X	2.G	.	.	.
.	4D	4F	.	.	.
.	[2D	4E	.	.	.
.	.	4D	.	.	.
=39	=39	=39	=39	=39	=39
0r	2D]	1E	0r	0r	0r
.	2C#i	.	.	.	.
.	2D	1D	.	.	.
.	2GG	.	.	.	.
=40	=40	=40	=40	=40	=40
0r	2GG	1r	0r	0r	0r
.	2FF	.	.	.	.
.	2.GG	2r	.	.	.
.	.	2G	.	.	.
.	4AA	.	.	.	.
=41	=41	=41	=41	=41	=41
0r	4BB-y	2G	0r	0r	0r
.	4C	.	.	.	.
.	2D	2F	.	.	.
.	2BB-y	2.G	.	.	.
.	2C	.	.	.	.
.	.	4A	.	.	.
=42	=42	=42	=42	=42	=42
0r	4GG	2.B-y	0r	0r	0r
.	4AA	.	.	.	.
.	4BB-y	.	.	.	.
.	4C	8AL	.	.	.
.	.	8GJ	.	.	.
.	2D	2.F	.	.	.
.	[2D	.	.	.	.
.	.	4G	.	.	.
=43	=43	=43	=43	=43	=43
0r	2D]	4A	0r	0r	0r
.	.	4B-y	.	.	.
.	2C	2.c	.	.	.
.	1E-X	.	.	.	.
.	.	4B-y	.	.	.
.	.	4G	.	.	.
.	.	4A	.	.	.
=44	=44	=44	=44	=44	=44
0r	2.D	4B-y	0r	0r	0r
.	.	4G	.	.	.
.	.	2A	.	.	.
.	4C	.	.	.	.
.	2BB-y	2D	.	.	.
.	[2C	[2A	.	.	.
=45	=45	=45	=45	=45	=45
0r	4C]	4A]	0r	0r	0r
.	4BB-y	4G	.	.	.
.	4AA	1G	.	.	.
.	4GG	.	.	.	.
.	1AA	.	.	.	.
.	.	2F#i	.	.	.
=46	=46	=46	=46	=46	=46
00r	00GG	00G	00r	00r	00r
=47||	=47||	=47||	=47||	=47||	=47||
*M2/1	*M2/1	*M2/1	*M2/1	*M2/1	*M2/1
*met(C|)	*met(C|)	*met(C|)	*met(C|)	*met(C|)	*met(C|)
!!section: Agnus Dei III
!!!OMD: Agnus Dei III
1D	0r	1r	0r	0r	0r
2.F	.	1D	.	.	.
4E	.	.	.	.	.
=48	=48	=48	=48	=48	=48
4D	0r	2.F	0r	0r	0r
4C	.	.	.	.	.
2.D	.	.	.	.	.
.	.	4G	.	.	.
.	.	2A	.	.	.
4C	.	.	.	.	.
4BB-y	.	[2B-y	.	.	.
4AA	.	.	.	.	.
=49	=49	=49	=49	=49	=49
4GG	1D	2B-]	0r	0r	0r
4FF	.	.	.	.	.
2.F	.	4A	.	.	.
.	.	4G	.	.	.
.	2.F	2.A	.	.	.
4E	.	.	.	.	.
2D	.	.	.	.	.
.	4G	4B-y	.	.	.
=50	=50	=50	=50	=50	=50
2C	2A	2c	0r	0r	0r
2BB-y	1B-y	1d	.	.	.
2.E-i	.	.	.	.	.
.	4A	2c	.	.	.
4D	4G	.	.	.	.
=51	=51	=51	=51	=51	=51
4BB-y	2B-y	2.d	2r	0r	0r
4C	.	.	.	.	.
2.D	2A	.	1d	.	.
.	.	4c	.	.	.
.	2F	2A	.	.	.
4C	.	.	.	.	.
4BB-y	[2G	[2B-y	2d	.	.
4AA	.	.	.	.	.
=52	=52	=52	=52	=52	=52
2GG	2G]	2B-]	2B-y	0r	0r
1G	4F	4A	2c	.	.
.	4E	4G	.	.	.
.	1D	1A	[1d	.	.
2F#i	.	.	.	.	.
=53	=53	=53	=53	=53	=53
2.G	2r	2G	1d]	0r	0r
.	2.GG	2.d	.	.	.
8FL	.	.	.	.	.
8EJ	.	.	.	.	.
2D	.	.	1r	.	.
.	4AA	4c	.	.	.
[2GG	4BB-y	[2B-y	.	.	.
.	4GG	.	.	.	.
=54	=54	=54	=54	=54	=54
4GG]	2D	2B-]	1d	0r	1r
4AA	.	.	.	.	.
4BB-y	2.D	4A	.	.	.
4GG	.	4G	.	.	.
[1D	.	2B-y	2.f	.	1d
.	4E	.	.	.	.
.	4F	2A	.	.	.
.	4G	.	4e	.	.
=55	=55	=55	=55	=55	=55
1D]	2A	1F	4d	0r	2.f
.	.	.	4c	.	.
.	2B-y	.	2.d	.	.
.	.	.	.	.	4g
1r	2F	1r	.	.	2a
.	.	.	4c	.	.
.	[2G	.	4B-y	.	[2b-y
.	.	.	4A	.	.
=56	=56	=56	=56	=56	=56
0r	2G]	0r	4G	1d	2b-]
.	.	.	4F	.	.
.	4F	.	2.f	.	4a
.	4E	.	.	.	4g
.	1D	.	.	2.f	2.a
.	.	.	4e	.	.
.	.	.	2d	.	.
.	.	.	.	4g	4b-y
=57	=57	=57	=57	=57	=57
0r	0r	0r	2c	2a	2cc
.	.	.	2B-y	1b-y	1dd
.	.	.	1e-i	.	.
.	.	.	.	4a	2cc
.	.	.	.	4g	.
=58	=58	=58	=58	=58	=58
2.GG	2r	0r	2d	2.b-y	0dd
.	2.GG	.	1d	.	.
4AA	.	.	.	4a	.
4BB-y	.	.	.	1g	.
4GG	4AA	.	.	.	.
[2D	4BB-y	.	4c	.	.
.	4GG	.	4B-y	.	.
=59	=59	=59	=59	=59	=59
4D]	2.D	1r	2A	0f	0r
4E	.	.	.	.	.
4F	.	.	2d	.	.
4G	4E	.	.	.	.
2A	2F	2r	2c	.	.
[2B-y	[2BB-y	[2d	[2f	.	.
=60	=60	=60	=60	=60	=60
2B-]	2BB-]	2d]	4f]	1r	1r
.	.	.	4d	.	.
4A	2C	4c	2e	.	.
4G	.	4B-y	.	.	.
2F	2D	2A	2.d	2r	2r
2G	[2GG	2B-y	.	[2b-y	[2dd
.	.	.	4c	.	.
=61	=61	=61	=61	=61	=61
1D	4GG]	2G	4B-y	2b-]	2dd]
.	4AA	.	4A	.	.
.	4BB-y	2G	2.d	4a	4cc
.	4GG	.	.	4g	4b-y
2r	1D	2A	.	2f	2a
.	.	.	4c	.	.
[2GG	.	2G	4B-y	2g	[2b-y
.	.	.	4A	.	.
=62	=62	=62	=62	=62	=62
4GG]	2r	1d	1B-y	2d	2b-]
4AA	.	.	.	.	.
4BB-y	1D	.	.	2.d	4a
4GG	.	.	.	.	4g
2.D	.	2r	1A	.	4f
.	.	.	.	4e	4g
.	4C	2d	.	4f	4a
8CL	4BB-y	.	.	4g	4b-y
8DJ	.	.	.	.	.
=63	=63	=63	=63	=63	=63
4E	2AA	2c	1r	2a	2cc
4D	.	.	.	.	.
1G	2BB-y	2B-y	.	2d	2dd
.	2C	1A	2r	2e	2cc
2F#i	2D	.	[2d	2f	2a
=64	=64	=64	=64	=64	=64
1G	4GG	2G	2d]	4B-y	1b-y
.	4AA	.	.	4c	.
.	4BB-y	2.d	2G	4d	.
.	4GG	.	.	4e	.
2F	2D	.	2A	2f	3.a
.	.	4B-y	.	.	.
2E	2E	2c	2G	2g	6f
.	.	.	.	.	3g
=65	=65	=65	=65	=65	=65
2.D	1F	4F	2d	1a	4f
.	.	4G	.	.	4e
.	.	4A	4c	.	4f
8CL	.	4B-y	4d	.	4g
8BB-yJ	.	.	.	.	.
2AA	2r	2c	2e	1r	2a
2BB-y	2G	2B-y	2d	.	[2g
=66	=66	=66	=66	=66	=66
2C	2E	1A	2e	1a	2g]
2D	2F	.	2d	.	2f#i
[1GG	2D	1G	2.B-y	1b-y	1g
.	2G	.	.	.	.
.	.	.	4c	.	.
=67	=67	=67	=67	=67	=67
1GG]	2.B-y	1G	0d	2g	2r
.	.	.	.	2.b-y	1g
.	4A	.	.	.	.
1r	4G	[1B-y	.	.	.
.	4F	.	.	4a	.
.	2G	.	.	4g	[2b-y
.	.	.	.	4f	.
=68	=68	=68	=68	=68	=68
1GG	2.D	1B-]	2r	1g	2b-]
.	.	.	1d	.	4a
.	4E	.	.	.	4g
[1D	2F	2A	.	1a	2.f
.	2D	[2F	[2f	.	.
.	.	.	.	.	4g
=69	=69	=69	=69	=69	=69
2D]	2.F	4F]	4f]	2d	2a
.	.	4G	4e	.	.
2D	.	2A	4d	1f	4d
.	4G	.	4c	.	4e
1D	[1A	4D	1d	.	4f
.	.	4E	.	.	4g
.	.	4F	.	4e	4a
.	.	4G	.	4d	4b-y
=70	=70	=70	=70	=70	=70
1AA	2A]	4A	1e	2.c	2.cc
.	.	4B-y	.	.	.
.	4G	2.c	.	.	.
.	4F	.	.	4d	4b-y
2.C	2E	.	1c	1e	2.g
.	.	4B-y	.	.	.
.	2E	[2G	.	.	.
4BB-y	.	.	.	.	4a
=71	=71	=71	=71	=71	=71
2.GG	2.G	4G]	2d	0d	2.b-y
.	.	4A	.	.	.
.	.	1B-y	4B-y	.	.
4AA	4F	.	4c	.	8aL
.	.	.	.	.	8gJ
4BB-y	[1D	.	4d	.	1f
4C	.	.	4e	.	.
4D	.	4A	[2f	.	.
4E	.	4G	.	.	.
=72	=72	=72	=72	=72	=72
2F	0D]	2A	4f]	2r	0r
.	.	.	4e	.	.
1G	.	2B-y	4d	2.d	.
.	.	.	4c	.	.
.	.	1A	1d	.	.
.	.	.	.	4e	.
2F	.	.	.	4f	.
.	.	.	.	4g	.
=73	=73	=73	=73	=73	=73
4G	2r	2G	1B-y	2e	0r
4F	.	.	.	.	.
4E	2.G	2.B-y	.	1d	.
4D	.	.	.	.	.
2.E-i	.	.	1r	.	.
.	4F	4A	.	.	.
.	4G	2G	.	2c	.
4D	4A	.	.	.	.
=74	=74	=74	=74	=74	=74
1BB-y	2.B-y	2F	0r	1d	0r
.	.	2.B-y	.	.	.
.	4A	.	.	.	.
[1E-i	4G	.	.	1r	.
.	4F	4A	.	.	.
.	[2G	[2c	.	.	.
=75	=75	=75	=75	=75	=75
2E-]	4G]	4c]	0r	0r	0r
.	4F	4B-y	.	.	.
2D	1F	1B-y	.	.	.
1C	.	.	.	.	.
.	2E	2A	.	.	.
=76	=76	=76	=76	=76	=76
[0BB-y	0F	1B-y	1r	2r	2.B-y
.	.	.	.	2.B-y	.
.	.	.	.	.	4c
.	.	1r	2.B-y	.	4d
.	.	.	.	4c	4e
.	.	.	.	4d	2f
.	.	.	4c	4e	.
=77	=77	=77	=77	=77	=77
0BB-]	0r	0r	4d	2f	2.B-y
.	.	.	4e	.	.
.	.	.	2.f	2.B-y	.
.	.	.	.	.	4c
.	.	.	.	.	4d
.	.	.	4e	4c	4e
.	.	.	4d	4d	[2f
.	.	.	4c	4e	.
=78	=78	=78	=78	=78	=78
0r	0r	0r	2B-y	2.f	4f]
.	.	.	.	.	4g
.	.	.	2F	.	4a
.	.	.	.	4e	8gL
.	.	.	.	.	8aJ
.	.	.	2B-y	2d	2b-y
.	.	.	2A	2c	[2cc
=79	=79	=79	=79	=79	=79
0r	0r	0r	1B-y	2d	4cc]
.	.	.	.	.	4b-y
.	.	.	.	4c	1b-y
.	.	.	.	4B-y	.
.	.	.	1F	1c	.
.	.	.	.	.	2a
=80	=80	=80	=80	=80	=80
2r	2r	2r	0r	0d	0b-y
2GG	2G	2B-y	.	.	.
2GG	2G	2B-y	.	.	.
2GG	2G	2B-y	.	.	.
=81	=81	=81	=81	=81	=81
1.D	2.F	2.A	0r	0r	0r
.	4G	4G	.	.	.
.	4A	2F	.	.	.
.	4B-y	.	.	.	.
2C	[2A	[2E-i	.	.	.
=82	=82	=82	=82	=82	=82
2.BB-y	4A]	4E-]	0r	0r	0r
.	4G	4D	.	.	.
.	1G	1D	.	.	.
4C	.	.	.	.	.
1AA	.	.	.	.	.
.	2F#i	2C	.	.	.
=83	=83	=83	=83	=83	=83
0GG	1G	[0D	2r	2r	2r
.	.	.	2G	2g	2b-y
.	1r	.	2G	2g	2b-y
.	.	.	2G	2g	2b-y
=84	=84	=84	=84	=84	=84
0r	0r	1D]	1.d	2.f	2.a
.	.	.	.	4g	4g
.	.	1r	.	4a	2f
.	.	.	.	4b-y	.
.	.	.	2c	[2a	[2e-i
=85	=85	=85	=85	=85	=85
0r	1r	0r	2.B-y	4a]	4e-]
.	.	.	.	4g	4d
.	.	.	.	1g	2.d
.	.	.	4c	.	.
.	[1D	.	1A	.	.
.	.	.	.	.	4c
.	.	.	.	2f#i	2d
=86	=86	=86	=86	=86	=86
1GG	2D]	2r	0G	1g	2B-y
.	2D	2.G	.	.	2B-y
2C	2E	.	.	1r	2c
.	.	4A	.	.	.
2BB-y	2D	[2B-y	.	.	2d
=87	=87	=87	=87	=87	=87
1GG	1G	2B-]	2r	2r	1B-y
.	.	4A	2.d	2d	.
.	.	4G	.	.	.
1D	2F	2.A	.	2.f	1r
.	.	.	4e	.	.
.	2F	.	4f	.	.
.	.	4B-y	4d	4g	.
=88	=88	=88	=88	=88	=88
2C	2E	2c	2e	2a	0r
2BB-y	2D	2d	2f	2b-y	.
1C	1E	2.c	1e	2a	.
.	.	.	.	[2g	.
.	.	4B-y	.	.	.
=89	=89	=89	=89	=89	=89
1D	1F	1A	1d	2g]	1r
.	.	.	.	2f#i	.
1GG	[1D	2G	2.B-y	1g	2r
.	.	2B-y	.	.	2d
.	.	.	4c	.	.
=90	=90	=90	=90	=90	=90
2r	1D]	4A	2d	0r	2.f
.	.	4G	.	.	.
2D	.	4A	2d	.	.
.	.	4B-y	.	.	4g
2C	1r	2c	2e	.	2a
2BB-y	.	2F	[2d	.	2b-y
=91	=91	=91	=91	=91	=91
1E-i	1C	1G	4d]	1r	2a
.	.	.	4B-y	.	.
.	.	.	2c	.	1g
1D	1F	1A	1d	1a	.
.	.	.	.	.	2f#i
=92	=92	=92	=92	=92	=92
2GG	2E-X	[0Gl	2B-y	2b-y	[0gl
2GG	2D	.	2B-y	2b-y	.
2C	2E-i	.	2c	1g	.
2BB-y	[2D	.	[2d	.	.
=93	=93	=93	=93	=93	=93
1.GG	2D]	0G_	4d]	2r	0g_
.	.	.	4c	.	.
.	2.G	.	4B-y	2.b-y	.
.	.	.	4A	.	.
.	.	.	2B-y	.	.
.	4F	.	.	4a	.
[2C	4E	.	2c	4g	.
.	4D	.	.	4f	.
=94	=94	=94	=94	=94	=94
2C]	2C	0G_	3G	2e	0g_
.	.	.	3A	.	.
2BB-y	2D	.	.	1d	.
.	.	.	3B-y	.	.
1C	1E	.	2.G	.	.
.	.	.	.	2c	.
.	.	.	4A	.	.
=95	=95	=95	=95	=95	=95
00GGl	00Dl	00G]	00B-yl	00dl	00g]
==	==	==	==	==	==
*-	*-	*-	*-	*-	*-
!!!system-decoration: [*]
!!!RDF**kern: i = editorial accidental
!!!RDF**kern: l = terminal long
!!!ENC: Benjamin Ory
!!!END: 2024/11/22
!!!EED: Benjamin Ory
!!!EEV: 2024/11/22
!!!YEC: Copyright 2024 Benjamin Ory, All Rights Reserved
!!!ONB: Translated from MusicXML on 2024/11/22